X: 24
T: Do Ciebie, Panie, wzdycha serce moje,
C: Mikołaj Gomółka
%%abc-version 2.0
%%abcx-abcm2ps-target-version 5.9.1 (29 Sep 2008)
%%abc-creator hum2abc beta
%%abcx-conversion-date 2021/10/04 07:59:09
%%abc-edited-by Leszek Kubiak
%%abcx-initial-encoding-date data 2020-02-10
%%humdrum-veritas 2274367864
%%humdrum-veritas-data 2626481010
%%linebreak <none>
%%barnumbers 0
L: 1/4
M: C|
N: Derived from pl-wn--sd-xvi-qu-273--025_gomolka-mikolaj--do-ciebie-panie-wzdycha-serce-moje.krn
%%staves [1 2 3 4]
V: 1
V: 2 clef=alto
V: 3 clef=alto
V: 4 clef=bass
K: F
[V:1] G4A4 [|] 
[V:2] D4F4 [|] 
[V:3] B,4C4 [|] 
[V:4] G,4F,4 [|] 
[V:1] B2c2A2zA [|] 
[V:2] G2G2F2zF [|] 
[V:3] _E2E2D2zD [|] 
[V:4] _E,2C,2D,2zD, [|] 
[V:1] B2>A2G2G2 [|] 
[V:2] F2E4C2 [|] 
[V:3] D2>C2B,2A,G, [|] 
[V:4] B,,2C,2_E,2E,2 [|] 
[V:1] ^F4 [|] 
[V:2] D4 [|] 
[V:3] A,4 [|] 
[V:4] D,4 [|] 
[V:1] A4 [I:setbarnb 5][|] 
[V:2] F6 [|] 
[V:3] D6 [|] 
[V:4] D,6 [|] 
[V:1] A2=F2B4 [|] 
[V:2] D2DCDE [|] 
[V:3] A,2B,2B,2 [|] 
[V:4] D,2B,,2G,,2 [|] 
[V:1] A2G2^F2G2 [|] 
[V:2] F2B,CDC/D/_ED [|] 
[V:3] F,2G,2A,2B,2 [|] 
[V:4] D,2_E,2D,2C,B,, [|] 
[V:1] A2A2D2G2 [|] 
[V:2] CB,C2D2D2 [|] 
[V:3] C2B,A,=B,2D2 [|] 
[V:4] A,,G,,A,,2G,,2G,2 [|] 
[V:1] =B2_B2c3B [|] 
[V:2] G2G2G4 [|] 
[V:3] D2D2_E4 [|] 
[V:4] G,2G,2C,4 [|] 
[V:1] A2A2c3B [|] 
[V:2] F2F2E2^C2 [|] 
[V:3] C2D2C2A,2 [|] 
[V:4] F,2D,2A,3G, [|] 
[V:1] A2G2d3c [|] 
[V:2] D2>E2^FG2=F [|] 
[V:3] A,2B,2A,4 [|] 
[V:4] ^F,2G,2D,4 [|] 
[V:1] =B32 [|] 
[V:2] !fermata!G32 [|] 
[V:3] G,32 [|] 
[V:4] !fermata!G,,32 [|] 


